src/4-icons/smartphone.svg

<svg width="260" height="260" viewBox="0 0 260 260" fill="none" xmlns="http://www.w3.org/2000/svg">
<path d="M75 31H185V206H75V31Z" fill="black"/>
<path fill-rule="evenodd" clip-rule="evenodd" d="M206 15C206 6.71573 199.284 5.69491e-06 191 5.33279e-06L69 0C60.7157 -3.62117e-07 54 6.71572 54 15L54 245C54 253.284 60.7157 260 69 260H191C199.284 260 206 253.284 206 245L206 15ZM193.483 24C193.483 18.4772 189.006 14 183.483 14L76.5186 14C70.9958 14 66.5186 18.4772 66.5186 24L66.5186 236C66.5186 241.523 70.9958 246 76.5186 246H183.483C189.006 246 193.483 241.523 193.483 236L193.483 24Z" fill="black"/>
<path d="M130.5 235C135.194 235 139 231.194 139 226.5C139 221.806 135.194 218 130.5 218C125.806 218 122 221.806 122 226.5C122 231.194 125.806 235 130.5 235Z" fill="black"/>
</svg>

<svg width="260" height="260" viewBox="0 0 260 260" fill="none" xmlns="http://www.w3.org/2000/svg"><path d="M75 31h110v175H75V31Z" fill="#000"/><path fill-rule="evenodd" clip-rule="evenodd" d="M206 15c0-8.284-6.716-15-15-15H69c-8.284 0-15 6.716-15 15v230c0 8.284 6.716 15 15 15h122c8.284 0 15-6.716 15-15V15Zm-12.517 9c0-5.523-4.477-10-10-10H76.519c-5.523 0-10 4.477-10 10v212c0 5.523 4.477 10 10 10h106.964c5.523 0 10-4.477 10-10V24Z" fill="#000"/><path d="M130.5 235a8.5 8.5 0 1 0-.001-17.001A8.5 8.5 0 0 0 130.5 235Z" fill="#000"/></svg>
